app/images/icons/shop-icon.svg

<?xml version="1.0" encoding="UTF-8" standalone="no"?>
<svg width="88px" height="76px" viewBox="0 0 88 76" version="1.1" xmlns="http://www.w3.org/2000/svg" xmlns:xlink="http://www.w3.org/1999/xlink" xmlns:sketch="http://www.bohemiancoding.com/sketch/ns">
    <!-- Generator: Sketch 3.1 (8751) - http://www.bohemiancoding.com/sketch -->
    <title>Fill 2856 + Fill 2857 + Fill 2858</title>
    <desc>Created with Sketch.</desc>
    <defs></defs>
    <g id="Page-1" stroke="none" stroke-width="1" fill="none" fill-rule="evenodd" sketch:type="MSPage">
        <g id="Fill-2856-+-Fill-2857-+-Fill-2858" sketch:type="MSLayerGroup" fill="#0A0B09">
            <path d="M17.6,43.8446923 L44,43.8446923 L44,61.3831538 L17.6,61.3831538 L17.6,43.8446923 Z M45.4666667,40.9230769 L16.1333333,40.9230769 C15.3266667,40.9230769 14.6666667,41.5763846 14.6666667,42.3831538 L14.6666667,62.8461538 C14.6666667,63.6514615 15.3266667,64.3062308 16.1333333,64.3062308 L45.4666667,64.3062308 C46.2733333,64.3062308 46.9333333,63.6514615 46.9333333,62.8461538 L46.9333333,42.3831538 C46.9333333,41.5763846 46.2733333,40.9230769 45.4666667,40.9230769 L45.4666667,40.9230769 Z" id="Fill-2856" sketch:type="MSShapeGroup"></path>
            <path d="M85.0666667,19.0014615 C85.0666667,24.2600769 80.08,29.2307692 74.8,29.2307692 C72.38,29.2307692 69.3,28.5584615 67.4666667,27.0925385 L67.4666667,17.5384615 L85.0666667,17.5384615 L85.0666667,19.0014615 L85.0666667,19.0014615 Z M76.2666667,73.0769231 L73.3333333,73.0769231 L73.3333333,42.3846154 C73.3333333,41.5778462 72.6733333,40.9245385 71.8666667,40.9245385 L54.2666667,40.9245385 C53.46,40.9245385 52.8,41.5778462 52.8,42.3846154 L52.8,73.0769231 L11.7333333,73.0769231 L11.7333333,32.1553077 C14.3146667,32.1553077 18.8026667,31.5107692 21.6333333,29.8577692 C24.0093333,33.1827692 26.7666667,35.0769231 32.2666667,35.0769231 C36.5786667,35.0769231 39.82,33.9047692 42.5626667,31.3076154 C45.364,33.7191538 49.5293333,35.0769231 54.2666667,35.0769231 C59.5906667,35.0769231 63.536,33.3742308 66.2933333,29.8782308 C68.8306667,31.5385385 72.3066667,32.1553077 74.8,32.1553077 C75.2986667,32.1553077 75.7826667,32.1158462 76.2666667,32.053 L76.2666667,73.0769231 L76.2666667,73.0769231 Z M55.7333333,43.8461538 L70.4,43.8461538 L70.4,73.0769231 L55.7333333,73.0769231 L55.7333333,43.8461538 Z M2.93333333,19.0014615 L2.93333333,17.5384615 L20.5333333,17.5384615 L20.5333333,27.0633077 C18.744,28.3538462 14.6666667,29.2307692 11.7333333,29.2307692 C6.21866667,29.2307692 2.93333333,24.0291538 2.93333333,19.0014615 L2.93333333,19.0014615 Z M11.1026667,2.92307692 L24.4346667,2.92307692 L20.9146667,14.6168462 L4.06266667,14.6168462 L11.1026667,2.92307692 L11.1026667,2.92307692 Z M60.5146667,2.92307692 L64.0346667,14.6168462 L44,14.6168462 L44,2.92307692 L60.5146667,2.92307692 L60.5146667,2.92307692 Z M41.0666667,2.92307692 L41.0666667,14.6168462 L23.9653333,14.6168462 L27.4853333,2.92307692 L41.0666667,2.92307692 L41.0666667,2.92307692 Z M23.4666667,17.5384615 L41.0666667,17.5384615 L41.0666667,28.6446923 C38.7493333,31.0883846 36.08,32.1553077 32.2666667,32.1553077 C27.9253333,32.1553077 25.8866667,31.0401538 23.4666667,27.322 L23.4666667,17.5384615 L23.4666667,17.5384615 Z M64.5333333,27.3059231 C62.2893333,30.6426154 59.1066667,32.1553077 54.2666667,32.1553077 C49.9253333,32.1553077 46.2293333,30.8647692 44,28.6242308 L44,17.5384615 L64.5333333,17.5384615 L64.5333333,27.3059231 L64.5333333,27.3059231 Z M83.9373333,14.6168462 L67.0853333,14.6168462 L63.5653333,2.92307692 L76.8973333,2.92307692 L83.9373333,14.6168462 L83.9373333,14.6168462 Z M87.8973333,15.5712308 C87.8826667,15.5288462 87.868,15.4908462 87.8386667,15.4484615 C87.824,15.4075385 87.8093333,15.3651538 87.7946667,15.3242308 L78.9946667,0.708846154 C78.7306667,0.270384615 78.2466667,0 77.7333333,0 L10.2666667,0 C9.75333333,0 9.26933333,0.270384615 9.00533333,0.708846154 L0.205333333,15.3242308 C0.190666667,15.3651538 0.176,15.4075385 0.161333333,15.4484615 C0.132,15.4908462 0.117333333,15.5288462 0.102666667,15.5712308 C0.044,15.7334615 0,15.9015385 0,16.0710769 L0,16.0769231 L0,19.0014615 C0,25.2363846 3.68133333,30.3123077 8.8,31.7387692 L8.8,74.5384615 C8.8,75.3452308 9.46,76.0014615 10.2666667,76.0014615 L77.7333333,76.0014615 C78.54,76.0014615 79.2,75.3452308 79.2,74.5384615 L79.2,31.2900769 C84.1573333,29.3535385 88,24.3711538 88,19.0014615 L88,16.0769231 L88,16.0710769 C88,15.9015385 87.956,15.7334615 87.8973333,15.5712308 L87.8973333,15.5712308 Z" id="Fill-2857" sketch:type="MSShapeGroup"></path>
            <path d="M66,58.4615385 C65.1933333,58.4615385 64.5333333,59.1148462 64.5333333,59.9216154 C64.5333333,60.7283846 65.1933333,61.3831538 66,61.3831538 C66.8066667,61.3831538 67.4666667,60.7283846 67.4666667,59.9216154 C67.4666667,59.1148462 66.8066667,58.4615385 66,58.4615385" id="Fill-2858" sketch:type="MSShapeGroup"></path>
        </g>
    </g>
</svg>

<svg width="88" height="76" viewBox="0 0 88 76" xmlns="http://www.w3.org/2000/svg">
    <desc>
        Created with Sketch.
    </desc>
    <g fill="#0A0B09">
        <path d="M17.6 43.845H44v17.538H17.6V43.845zm27.867-2.922H16.133c-.806 0-1.466.653-1.466 1.46v20.463c0 .805.66 1.46 1.466 1.46h29.334c.806 0 1.466-.655 1.466-1.46V42.383c0-.807-.66-1.46-1.466-1.46z"/>
        <path d="M85.067 19c0 5.26-4.987 10.23-10.267 10.23-2.42 0-5.5-.672-7.333-2.137v-9.555h17.6V19zm-8.8 54.077h-2.934V42.385c0-.807-.66-1.46-1.466-1.46h-17.6c-.807 0-1.467.653-1.467 1.46v30.692H11.733V32.155c2.582 0 7.07-.644 9.9-2.297 2.376 3.325 5.134 5.22 10.634 5.22 4.312 0 7.553-1.173 10.296-3.77 2.8 2.41 6.966 3.77 11.704 3.77 5.324 0 9.27-1.704 12.026-5.2 2.538 1.66 6.014 2.277 8.507 2.277.5 0 .983-.04 1.467-.102v41.024zm-20.534-29.23H70.4v29.23H55.733v-29.23zM2.933 19V17.54h17.6v9.525c-1.79 1.29-5.866 2.168-8.8 2.168-5.514 0-8.8-5.2-8.8-10.23zm8.17-16.077h13.332l-3.52 11.694H4.063l7.04-11.694zm49.412 0l3.52 11.694H44V2.923h16.515zm-19.448 0v11.694H23.965l3.52-11.694h13.582zm-17.6 14.615h17.6v11.107c-2.318 2.443-4.987 3.51-8.8 3.51-4.342 0-6.38-1.115-8.8-4.833v-9.784zm41.066 9.768c-2.244 3.337-5.426 4.85-10.266 4.85-4.342 0-8.038-1.29-10.267-3.532V17.538h20.533v9.768zm19.404-12.69H67.085l-3.52-11.693h13.332l7.04 11.694zm3.96.955c-.014-.04-.03-.08-.058-.122-.016-.04-.03-.083-.045-.124L78.995.71C78.73.27 78.247 0 77.733 0H10.267c-.514 0-.998.27-1.262.71l-8.8 14.614-.044.124c-.028.043-.043.08-.057.123-.06.163-.103.332-.103.5v2.931c0 6.236 3.68 11.312 8.8 12.74v42.798c0 .807.66 1.463 1.467 1.463h67.466c.807 0 1.467-.655 1.467-1.462V31.29C84.157 29.354 88 24.37 88 19v-2.929c0-.168-.044-.337-.103-.5z"/>
        <path d="M66 58.462c-.807 0-1.467.653-1.467 1.46 0 .806.66 1.46 1.467 1.46s1.467-.654 1.467-1.46c0-.807-.66-1.46-1.467-1.46"/>
    </g>
</svg>
